X: 23861
T: Lizzie Jeffries
R: jig
M: 6/8
K: Gmajor
|:E3 BAG|ABc BAB|E3 BAG|FDF AGF|
E3 BAG|ABc B2 A|BeB cBA|GAB AFD:|
|:B2 e efe|efe dBA|B2 e efg|fed B2A|
B2 e efe|efe dBA|BAG FGA|BAG FED:|
|:E3 BAG|BAG FGF|E2 B BAG|GBG AFD|
E3 BAG|BAG B2 A|BeB cBA|GAB AFD:|

